src/assets/LinkedIn.svg

<?xml version="1.0" encoding="UTF-8" standalone="no"?>
<svg
   viewBox="0 0 140.05804 140.03745"
   fill="none"
   version="1.1"
   id="svg55"
   sodipodi:docname="LinkedIn.svg"
   inkscape:version="1.1.2 (b8e25be833, 2022-02-05)"
   xmlns:inkscape="http://www.inkscape.org/namespaces/inkscape"
   xmlns:sodipodi="http://sodipodi.sourceforge.net/DTD/sodipodi-0.dtd"
   xmlns="http://www.w3.org/2000/svg"
   xmlns:svg="http://www.w3.org/2000/svg">
  <sodipodi:namedview
     id="namedview57"
     pagecolor="#505050"
     bordercolor="#eeeeee"
     borderopacity="1"
     inkscape:pageshadow="0"
     inkscape:pageopacity="0"
     inkscape:pagecheckerboard="true"
     showgrid="false"
     inkscape:zoom="5.7304965"
     inkscape:cx="111.68317"
     inkscape:cy="70.499999"
     inkscape:window-width="2560"
     inkscape:window-height="1017"
     inkscape:window-x="-8"
     inkscape:window-y="-8"
     inkscape:window-maximized="1"
     inkscape:current-layer="g48"
     inkscape:snap-to-guides="true"
     inkscape:snap-page="false"
     width="141px"
     fit-margin-top="0"
     fit-margin-left="0"
     fit-margin-right="0"
     fit-margin-bottom="0"
     borderlayer="true" />
  <g
     clip-path="url(#clip0_2132_7)"
     id="g48"
     transform="translate(0,-0.0157623)">
    <path
       d="m 11.5639,0.715759 c 2.06,-0.6499997 4.26,-0.6699967 6.41,-0.6999967 35.37,0.05 70.74,-0.0500067 106.1101,0.0399933 8.78,-0.04999997 16.46,8.2200044 15.95,16.9600444 -0.04,35.7 0.03,71.41 -0.04,107.1102 0,8.76 -8.25,16.45 -16.99,15.9 -35.6701,-0.02 -71.3501,0.04 -107.0201,-0.03 -8.74001,0.04 -16.470007,-8.17 -15.9600071,-16.9 0.01,-35.7202 -0.02999953,-71.4402 0.0200005,-107.1602 C 0.0338934,9.05576 5.12389,2.81576 11.5639,0.715759 Z m 3.63,10.460041 c -3.18,0.45 -4.53,3.9 -4.32,6.76 0.06,35.13 -0.07,70.26 0.06,105.3802 -0.12,3.36 2.72,5.98 6.04,5.82 35.04,0.08 70.08,0 105.1201,0.04 1.85,-0.13 4.05,-0.19 5.39,-1.66 1.74,-1.64 1.61,-4.29 1.7,-6.47 -0.06,-34.7003 0.03,-69.4002 -0.05,-104.1002 0.22,-3.38 -2.66,-6.21 -6.03,-6.03 -34.3401,-0.09 -68.6901,0.02 -103.0401,-0.05 -1.62,0.03 -3.28,-0.11 -4.87,0.31 z"
       fill="currentColor"
       id="path34" />
    <path
       d="m 31.4039,23.4458 c 4.41,-1.13 9.47,0.28 12.1,4.14 4.44,5.56 1.7,14.71 -4.96,17.08 -6.58,2.92 -14.93,-2.35 -15.19,-9.51 -0.66,-5.2 3.05,-10.39 8.05,-11.71 z"
       fill="currentColor"
       id="path38" />
    <path
       d="m 74.6739,62.4958 c 2.58,-6.09 9.37,-9 15.58,-9.66 6.76,-0.43 14.3301,0.72 19.2201,5.84 4.36,4.92 5.41,11.75 5.86,18.08 0.18,12.97 0.04,25.9502 0.08,38.9202 -6.3,-0.03 -12.59,0.01 -18.8801,-0.02 -0.01,-11.07 0.06,-22.1403 -0.04,-33.2003 -0.23,-3.9 -0.56,-8.4299 -3.71,-11.1699 -2.95,-2.62 -7.29,-2.26 -10.87,-1.47 -5.47,1.75 -7.39,7.97 -7.45,13.16 -0.12,10.9 -0.02,21.8002 -0.05,32.7002 -6.22,-0.01 -12.43,-0.02 -18.64,0 0,-20.6302 -0.03,-41.2503 0.01,-61.8803 6.2,0.01 12.4,0.0101 18.6,0.0101 -0.02,2.89 -0.04,5.8 0.29,8.69 z"
       fill="currentColor"
       id="path44" />
    <path
       d="m 24.6439,53.8158 c 6.34,-0.04 12.68,0.03 19.02,-0.03 0.2,20.63 0.02,41.27 0.09,61.9102 -6.37,-0.05 -12.74,-0.03 -19.12,-0.01 0,-20.6302 -0.02,-41.2502 0.01,-61.8702 z"
       fill="currentColor"
       id="path46" />
  </g>
  <defs
     id="defs53">
    <clipPath
       id="clip0_2132_7">
      <rect
         width="340.004"
         height="140.041"
         fill="#ffffff"
         transform="translate(0,0.012207)"
         id="rect50"
         x="0"
         y="0" />
    </clipPath>
  </defs>
</svg>

<?xml version="1.0" encoding="UTF-8" standalone="no"?>
<svg
   width="341"
   height="141"
   viewBox="0 0 341 141"
   fill="none"
   version="1.1"
   id="svg55"
   sodipodi:docname="Frame 2.svg"
   inkscape:version="1.1.2 (b8e25be833, 2022-02-05)"
   xmlns:inkscape="http://www.inkscape.org/namespaces/inkscape"
   xmlns:sodipodi="http://sodipodi.sourceforge.net/DTD/sodipodi-0.dtd"
   xmlns="http://www.w3.org/2000/svg"
   xmlns:svg="http://www.w3.org/2000/svg">
  <sodipodi:namedview
     id="namedview57"
     pagecolor="#505050"
     bordercolor="#eeeeee"
     borderopacity="1"
     inkscape:pageshadow="0"
     inkscape:pageopacity="0"
     inkscape:pagecheckerboard="0"
     showgrid="false"
     inkscape:zoom="5.7304965"
     inkscape:cx="170.57859"
     inkscape:cy="70.5"
     inkscape:window-width="2560"
     inkscape:window-height="1017"
     inkscape:window-x="-8"
     inkscape:window-y="-8"
     inkscape:window-maximized="1"
     inkscape:current-layer="g48" />
  <g
     clip-path="url(#clip0_2132_7)"
     id="g48">
    <path
       d="M11.5639 0.715759C13.6239 0.0657593 15.8239 0.0457623 17.9739 0.0157623C53.3439 0.0657623 88.7139 -0.0342444 124.084 0.0557556C132.864 0.00575563 140.544 8.27576 140.034 17.0158C139.994 52.7158 140.064 88.4258 139.994 124.126C139.994 132.886 131.744 140.576 123.004 140.026C87.3339 140.006 51.6539 140.066 15.9839 139.996C7.24389 140.036 -0.486107 131.826 0.0238929 123.096C0.0338929 87.3758 -0.00610663 51.6558 0.0438934 15.9358C0.0338934 9.05576 5.12389 2.81576 11.5639 0.715759ZM15.1939 11.1758C12.0139 11.6258 10.6639 15.0758 10.8739 17.9358C10.9339 53.0658 10.8039 88.1958 10.9339 123.316C10.8139 126.676 13.6539 129.296 16.9739 129.136C52.0139 129.216 87.0539 129.136 122.094 129.176C123.944 129.046 126.144 128.986 127.484 127.516C129.224 125.876 129.094 123.226 129.184 121.046C129.124 86.3457 129.214 51.6458 129.134 16.9458C129.354 13.5658 126.474 10.7358 123.104 10.9158C88.7639 10.8258 54.4139 10.9358 20.0639 10.8658C18.4439 10.8958 16.7839 10.7558 15.1939 11.1758Z"
       fill="black"
       id="path34" />
    <path
       d="M31.4039 23.4458C35.8139 22.3158 40.8739 23.7258 43.5039 27.5858C47.9439 33.1458 45.2039 42.2958 38.5439 44.6658C31.9639 47.5858 23.6139 42.3158 23.3539 35.1558C22.6939 29.9558 26.4039 24.7658 31.4039 23.4458Z"
       fill="black"
       id="path38" />
    <path
       d="M74.6739 62.4958C77.2539 56.4058 84.0439 53.4958 90.2539 52.8358C97.0139 52.4058 104.584 53.5558 109.474 58.6758C113.834 63.5958 114.884 70.4258 115.334 76.7558C115.514 89.7258 115.374 102.706 115.414 115.676C109.114 115.646 102.824 115.686 96.5339 115.656C96.5239 104.586 96.5939 93.5157 96.4939 82.4557C96.2639 78.5557 95.9339 74.0258 92.7839 71.2858C89.8339 68.6658 85.4939 69.0258 81.9139 69.8158C76.4439 71.5658 74.5239 77.7858 74.4639 82.9758C74.3439 93.8758 74.4439 104.776 74.4139 115.676C68.1939 115.666 61.9839 115.656 55.7739 115.676C55.7739 95.0458 55.7439 74.4257 55.7839 53.7957C61.9839 53.8057 68.1839 53.8058 74.3839 53.8058C74.3639 56.6958 74.3439 59.6058 74.6739 62.4958Z"
       fill="black"
       id="path44" />
    <path
       d="M24.6439 53.8158C30.9839 53.7758 37.3239 53.8458 43.6639 53.7858C43.8639 74.4158 43.6839 95.0558 43.7539 115.696C37.3839 115.646 31.0139 115.666 24.6339 115.686C24.6339 95.0558 24.6139 74.4358 24.6439 53.8158Z"
       fill="black"
       id="path46" />
  </g>
  <defs
     id="defs53">
    <clipPath
       id="clip0_2132_7">
      <rect
         width="340.004"
         height="140.041"
         fill="white"
         transform="translate(0 0.012207)"
         id="rect50" />
    </clipPath>
  </defs>
</svg>
